X: 986
T: The fairy dance
C: Nathaniel Gow ?
O: Scotland?
B: Francis O'Neill: "The Dance Music of Ireland" (1907) no. 986
N: Although O'Neill includes this tune in the "miscellaneous"
N: section, it's usually played as a reel.
N: The tune is anonymous in O'Neill.
N: Other sources suggests it was written by Nathaniel Gow .
R: Reel
Z: Transcribed by Frank Nordberg - http://www.musicaviva.com
F: http://www.musicaviva.com/abc/tunes/gow-nathaniel/oneill-1001/oneill-10
01-0986.abc
M: C
L: 1/8
K: A
(ed)|c2cA c2c(A|dc)BA GABd|c(Bce) dcBA|GEFG A2:|
(cd)|e2ec f2f(e|dc)df e2(ed)|cBce dcBA|GEFG A(Bcd)|efe(c fg)fe|d(cdf) e2d
2|cBc(e dcB)A|G(EFG)A2|]
W:
W:
W: From Musica Viva - http://www.musicaviva.com
W: the Internet center for free sheet music downloads.


